carriers/fanCourier.svg

<svg width="128" height="64" viewBox="0 0 128 64" fill="none" xmlns="http://www.w3.org/2000/svg">
<rect width="128" height="64" rx="6" fill="white"/>
<path d="M61.1421 44.855L56.6804 56.2711H58.6222L59.0913 55.0656H62.2439L62.5548 56.2765H68.9637L64.1802 44.8605L61.1421 44.855ZM60.8803 50.4349L61.7203 53.353H59.7785L60.8803 50.4349Z" fill="black"/>
<path d="M47.9697 44.8605H56.364V46.6223H53.9477V49.4804H56.364V51.1822H53.9477V56.2711H47.9752L47.9697 44.8605Z" fill="black"/>
<path d="M69.3779 44.8605H73.4687L78.2468 49.3277V45.0133H80.0303V56.2711H76.6704L71.1615 51.0894V56.2602H69.3779V44.8605Z" fill="black"/>
<path d="M68.3036 57.6347V58.5729H70.4853V57.6347H68.3036ZM50.0423 58.6329C49.5452 58.5948 49.0488 58.7151 48.6242 58.9765C48.417 59.1155 48.2491 59.3053 48.1364 59.5279C48.0237 59.7504 47.97 59.9981 47.9805 60.2474C47.9703 60.495 48.0242 60.7411 48.1369 60.9618C48.2497 61.1826 48.4175 61.3705 48.6242 61.5073C49.0454 61.7718 49.5412 61.8924 50.0368 61.8509H50.4568V61.251H50.0914C50.0321 61.243 49.9778 61.2137 49.9386 61.1685C49.8995 61.1233 49.8781 61.0653 49.8787 61.0055V59.4783C49.8787 59.3801 49.9278 59.2819 50.0914 59.2328H50.4841L50.5496 58.6383H50.0423V58.6329ZM54.1331 58.6329C53.608 58.6214 53.0932 58.7802 52.6659 59.0856C52.4647 59.2136 52.2999 59.3913 52.1872 59.6014C52.0745 59.8115 52.0177 60.0471 52.0222 60.2855C52.031 60.5229 52.0935 60.7552 52.2049 60.9649C52.3164 61.1746 52.474 61.3564 52.6659 61.4964C53.0909 61.8053 53.6081 61.9611 54.1331 61.9382H54.1822C54.7102 61.9589 55.2302 61.8035 55.6603 61.4964C55.8509 61.3564 56.0067 61.1743 56.1155 60.9643C56.2243 60.7543 56.2831 60.522 56.2876 60.2855C56.2933 60.0481 56.2382 59.8132 56.1274 59.6032C56.0167 59.3931 55.854 59.2149 55.6549 59.0856C55.2234 58.7801 54.7052 58.6214 54.1767 58.6329H54.1331ZM73.8125 58.6329C73.3376 58.6318 72.8762 58.7913 72.5034 59.0856C72.3099 59.2173 72.1543 59.3974 72.0519 59.6079C71.9495 59.8184 71.904 60.052 71.9198 60.2855C71.8931 60.5845 71.9657 60.8839 72.1265 61.1373C72.2872 61.3907 72.5271 61.5841 72.8089 61.6873C73.1903 61.856 73.6027 61.9433 74.0198 61.9437C74.5142 61.9277 75.0057 61.8619 75.487 61.7473V61.0982C75.2293 61.1581 74.9661 61.191 74.7016 61.1964C74.0252 61.1964 73.9489 60.9128 73.9598 60.5419H75.5361C75.5361 60.268 75.5031 59.9952 75.4379 59.7292C75.3765 59.4602 75.2314 59.2177 75.0234 59.0365C74.6793 58.7646 74.2509 58.6218 73.8125 58.6329V58.6329ZM57.6566 58.7201V60.8419C57.6421 61.0016 57.6674 61.1624 57.7303 61.3099C57.7931 61.4574 57.8915 61.5871 58.0166 61.6873C58.3022 61.9056 58.6558 62.0157 59.0148 61.9982C59.4369 62.0027 59.8528 61.8954 60.2202 61.6873V61.8346H62.4292V58.7256H60.2474V60.7982C60.2474 60.8964 60.2474 60.9455 60.1984 60.9946C60.1493 61.0437 60.0893 61.0437 59.9802 61.0437C59.9462 61.0477 59.9118 61.0443 59.8793 61.0336C59.8469 61.0229 59.8171 61.0053 59.7922 60.9819C59.7672 60.9585 59.7477 60.93 59.7349 60.8982C59.7222 60.8665 59.7165 60.8324 59.7184 60.7982V58.7256H57.6566V58.7201ZM63.7873 58.7201V61.84H66.0455V60.0892C66.0304 59.9826 66.0472 59.8739 66.0938 59.7768C66.1404 59.6798 66.2147 59.5987 66.3073 59.5437C66.498 59.4356 66.7157 59.3845 66.9345 59.3965V58.7256C66.6279 58.7255 66.3255 58.7965 66.0509 58.9328V58.7256H63.7873V58.7201ZM68.3036 58.7201V61.84H70.4853V58.7256L68.3036 58.7201ZM76.9106 58.7201V61.84H79.0923V60.0892C79.0902 59.9841 79.1128 59.88 79.1583 59.7853C79.2037 59.6905 79.2708 59.6078 79.3541 59.5437C79.5478 59.4382 79.7665 59.3873 79.9869 59.3965V58.7256C79.6799 58.7367 79.378 58.8071 79.0978 58.9328V58.7256H76.916L76.9106 58.7201ZM74.287 59.3256C74.5325 59.3256 74.5707 59.6637 74.6525 59.871H73.9598C74.0198 59.5165 74.1288 59.3256 74.287 59.3256ZM54.1385 59.3747H54.1822C54.2484 59.3731 54.3126 59.3972 54.3614 59.442C54.4102 59.4867 54.4398 59.5486 54.444 59.6146V61.0382C54.4455 61.069 54.4408 61.0998 54.4304 61.1289C54.4199 61.1579 54.4039 61.1845 54.3831 61.2073C54.3623 61.2301 54.3372 61.2486 54.3093 61.2617C54.2814 61.2748 54.2512 61.2823 54.2204 61.2837H54.1331C54.0697 61.2883 54.007 61.2681 53.9581 61.2274C53.9093 61.1867 53.8782 61.1287 53.8713 61.0655V59.6419C53.8698 59.609 53.8749 59.576 53.8861 59.545C53.8974 59.514 53.9147 59.4856 53.937 59.4612C53.9593 59.4369 53.9861 59.4172 54.016 59.4033C54.046 59.3894 54.0783 59.3815 54.1113 59.3801L54.1385 59.3747Z" fill="#919396"/>
<path d="M46.2622 11.1416V33.5809L53.3529 37.2681L54.8201 36.5754V13.6288L62.909 12.2488V11.4089L53.3365 13.0452L46.2458 11.1471L46.2622 11.1416Z" fill="#0F2345"/>
<path d="M56.9966 14.1796V38.8607L64.0873 42.5479L65.5654 41.7242V16.6341L73.2015 14.4523V13.6287L64.1091 16.0777L56.9966 14.1796Z" fill="#0F2345"/>
<path d="M56.8386 9.66888V10.2634L62.9475 11.4088V12.2324L64.4584 11.9215V11.1361L56.8386 9.66888ZM65.9311 11.3052V35.1518L74.7508 37.2081V12.9579L65.9311 11.3052Z" fill="#0F2345"/>
<path d="M14.7305 2L15.1286 8.12527L28.95 14.6705C24.3847 12.8706 20.9321 11.4797 18.5049 10.5034L18.6249 12.9851L19.3776 13.3778C25.1429 16.3887 29.6373 18.6359 32.959 20.1795L22.5139 15.5596L22.6339 18.3631L23.5502 18.7886L24.4229 19.2577C24.8156 19.454 25.2138 19.6231 25.6174 19.8031L39.5861 26.8174L26.2828 20.6594L26.4028 23.4194L44.7623 32.79H44.8005V10.8525H44.8768L14.7305 2ZM46.2623 11.1415V33.5809L53.3529 37.2517V13.0342L46.2623 11.1361V11.1415ZM54.8474 13.6287V37.808L64.1199 42.5479V16.0778L54.8474 13.6287Z" fill="#0F2345"/>
<path d="M74.8652 9.74524H74.9415L83.4504 10.7816V32.7136L81.9995 32.1246L74.8052 31.1864V9.78342L74.8652 9.74524Z" fill="#0F2345"/>
<path d="M65.9309 11.2725L67.6436 33.4772L74.7343 37.1917L76.2015 36.2808V13.536L81.9668 11.8997V11.0488L74.7343 12.9579L65.9309 11.2725Z" fill="#0F2345"/>
<path d="M56.8386 9.66888V14.5778L64.4748 18.1395L65.942 17.4523L72.2145 16.3614V9.81615L64.4693 11.1361L56.8386 9.66888Z" fill="#0F2345"/>
<path d="M74.9363 9.74524L76.2508 29.0265L83.4397 32.7136L84.8196 31.8628V11.3652L83.3415 10.787L74.9363 9.74524Z" fill="#0F2345"/>
<path d="M113.27 2L83.445 10.7816V32.7136L101.706 23.2721L101.821 20.5449L88.5721 26.7084L102.541 19.7104C102.906 19.514 103.25 19.3449 103.632 19.1649C103.926 18.9959 104.232 18.8483 104.548 18.7231L105.464 18.2486L105.612 15.456C103.817 16.2359 100.337 17.8177 95.1719 20.1031C98.4445 18.5759 102.961 16.285 108.764 13.2742L109.468 12.8815L109.637 10.3452C107.199 11.3815 103.763 12.7615 99.1863 14.616L112.959 7.96164L113.27 2ZM81.9996 11.0488L74.7671 12.9579V37.2135L81.9996 33.4663V11.0488ZM73.2726 13.6124L64.1365 16.0778V42.5479L73.2726 37.8571V13.6124Z" fill="#475F9A"/>
<path d="M72.1813 9.82162L64.4361 11.1416V11.927L65.9142 12.2325V11.2725L72.1813 10.2634V9.81616V9.82162ZM62.9089 11.4088L53.3364 13.0452V37.2681L54.8037 36.5754V13.6288L62.9089 12.2488V11.4088Z" fill="#475F9A"/>
<path d="M37.6934 8.95978V29.141L44.7841 32.8172L46.2458 32.13V11.4415L54.182 10.5361V9.71248L44.8059 10.8579L37.6934 8.95978Z" fill="#0F2345"/>
<path d="M54.1331 9.70703H54.1822V10.1488L46.2679 11.1361V32.2336L44.8062 32.7791V10.8525H44.9098L54.1331 9.70703Z" fill="#475F9A"/>
<path d="M14.7305 2L44.9096 10.8525L54.182 9.70704L14.7305 2ZM113.269 2L74.7778 9.74522H74.8596L83.4448 10.7816L113.269 2ZM64.0981 8.80161L56.8383 9.66886L64.4744 11.1415L72.1815 9.82158L64.1199 8.80161H64.0981ZM55.3711 9.99067L54.1875 10.1379L46.2677 11.1415L53.3584 13.0342L62.9308 11.3979L56.8219 10.2525L55.3711 9.99067ZM73.6487 9.99067L72.2087 10.2634L65.9307 11.2724L74.7505 12.936L81.9994 11.0488L74.805 10.1161L73.6487 9.99067ZM64.4635 11.9215L62.9581 12.2324L54.8529 13.6287L64.1253 16.0778L73.2723 13.6287L65.9635 12.2324L64.4635 11.9215Z" fill="#BAD2ED"/>
</svg>

<svg xmlns="http://www.w3.org/2000/svg" width="128" height="64" fill="none"><rect width="128" height="64" fill="#fff" rx="6"/><path fill="#000" d="M61.142 44.855 56.68 56.271h1.942l.47-1.205h3.152l.31 1.21h6.41L64.18 44.86l-3.038-.005Zm-.262 5.58.84 2.918H59.78l1.101-2.918ZM47.97 44.86h8.394v1.762h-2.416v2.858h2.416v1.702h-2.416v5.09h-5.973L47.97 44.86ZM69.378 44.86h4.09l4.779 4.468v-4.315h1.783v11.258h-3.36l-5.508-5.182v5.171h-1.784v-11.4Z"/><path fill="#919396" d="M68.304 57.635v.938h2.181v-.938h-2.181Zm-18.262.998a2.36 2.36 0 0 0-1.418.343 1.456 1.456 0 0 0-.644 1.271 1.44 1.44 0 0 0 .644 1.26c.421.265.917.385 1.413.344h.42v-.6h-.366a.246.246 0 0 1-.212-.245v-1.528c0-.098.049-.196.212-.245h.393l.066-.595h-.508v-.005Zm4.091 0a2.432 2.432 0 0 0-1.467.453 1.39 1.39 0 0 0-.644 1.2 1.572 1.572 0 0 0 .644 1.21c.425.31.942.465 1.467.442h.05a2.383 2.383 0 0 0 1.477-.442 1.538 1.538 0 0 0 .628-1.21 1.39 1.39 0 0 0-.633-1.2 2.465 2.465 0 0 0-1.478-.453h-.044Zm19.68 0a2.105 2.105 0 0 0-1.31.453 1.342 1.342 0 0 0-.583 1.2 1.363 1.363 0 0 0 .889 1.401 3 3 0 0 0 1.21.257 7.362 7.362 0 0 0 1.468-.197v-.649c-.258.06-.52.093-.785.098-.677 0-.753-.283-.742-.654h1.576c0-.274-.033-.547-.098-.813a1.303 1.303 0 0 0-.415-.693 1.876 1.876 0 0 0-1.21-.403Zm-16.156.087v2.122a.97.97 0 0 0 .36.845c.285.219.639.329.998.311.422.005.838-.103 1.205-.31v.147h2.21v-3.11h-2.183v2.073c0 .098 0 .148-.049.197-.049.049-.109.049-.218.049a.235.235 0 0 1-.262-.246v-2.072h-2.061v-.006Zm6.13 0v3.12h2.259v-1.75a.545.545 0 0 1 .261-.546c.191-.108.409-.16.627-.147v-.671c-.306 0-.608.07-.883.207v-.207h-2.264v-.006Zm4.517 0v3.12h2.181v-3.114l-2.181-.006Zm8.607 0v3.12h2.181v-1.75a.67.67 0 0 1 .262-.546c.194-.106.412-.157.633-.147v-.671a2.383 2.383 0 0 0-.89.207v-.207h-2.181l-.005-.006Zm-2.624.606c.245 0 .284.338.365.545h-.692c.06-.355.169-.545.327-.545Zm-20.149.049h.044a.256.256 0 0 1 .262.24v1.423a.236.236 0 0 1-.224.246h-.087a.246.246 0 0 1-.262-.218v-1.424a.252.252 0 0 1 .24-.262l.028-.005Z"/><path fill="#0F2345" d="M46.262 11.142V33.58l7.09 3.687 1.468-.693V13.63l8.089-1.38v-.84l-9.572 1.636-7.091-1.898.016-.005Z"/><path fill="#0F2345" d="M56.997 14.18v24.68l7.09 3.688 1.478-.824v-25.09l7.636-2.182v-.823l-9.092 2.449-7.112-1.898Z"/><path fill="#0F2345" d="M56.839 9.669v.594l6.108 1.146v.823l1.511-.31v-.786l-7.62-1.467Zm9.092 1.636v23.847l8.82 2.056v-24.25l-8.82-1.653ZM14.73 2l.399 6.125 13.821 6.546c-4.565-1.8-8.018-3.191-10.445-4.168l.12 2.482.753.393c5.765 3.01 10.26 5.258 13.581 6.802l-10.445-4.62.12 2.803.916.426.873.469c.393.196.79.365 1.194.545l13.97 7.014-13.304-6.158.12 2.76 18.36 9.371h.038V10.852h.076L14.73 2Zm31.532 9.142V33.58l7.09 3.67V13.035l-7.09-1.898v.006Zm8.585 2.487v24.179l9.273 4.74v-26.47l-9.273-2.45ZM74.865 9.745h.077l8.508 1.037v21.932l-1.45-.59-7.195-.938V9.783l.06-.038Z"/><path fill="#0F2345" d="m65.93 11.273 1.714 22.204 7.09 3.715 1.468-.911V13.536l5.765-1.636v-.851l-7.233 1.909-8.803-1.685Z"/><path fill="#0F2345" d="M56.839 9.669v4.909l7.636 3.562 1.467-.688 6.273-1.09V9.815l-7.746 1.32-7.63-1.467ZM74.936 9.745l1.315 19.281 7.189 3.688 1.38-.851V11.365l-1.478-.578-8.406-1.042Z"/><path fill="#475F9A" d="m113.27 2-29.825 8.782v21.932l18.261-9.442.115-2.727-13.249 6.163 13.969-6.998c.365-.196.709-.365 1.091-.545.294-.17.6-.317.916-.442l.916-.474.148-2.793c-1.795.78-5.275 2.362-10.44 4.647 3.273-1.527 7.789-3.818 13.592-6.829l.704-.392.169-2.537c-2.438 1.037-5.874 2.416-10.45 4.271l13.772-6.654L113.27 2ZM82 11.049l-7.233 1.909v24.256L82 33.466V11.05Zm-8.727 2.563-9.136 2.466v26.47l9.136-4.69V13.611ZM72.181 9.822l-7.745 1.32v.785l1.478.306v-.96l6.267-1.01v-.447.006Zm-9.272 1.587-9.573 1.636v24.223l1.468-.693V13.63l8.105-1.38v-.84Z"/><path fill="#0F2345" d="M37.693 8.96V29.14l7.091 3.676 1.462-.687V11.441l7.936-.905v-.824l-9.376 1.146-7.113-1.898Z"/><path fill="#475F9A" d="M54.133 9.707h.05v.442l-7.915.987v21.098l-1.462.545V10.852h.104l9.223-1.145Z"/><path fill="#BAD2ED" d="m14.73 2 30.18 8.852 9.272-1.145L14.73 2Zm98.539 0L74.778 9.745h.082l8.585 1.037L113.269 2Zm-49.17 6.802-7.26.867 7.635 1.473 7.707-1.32-8.061-1.02h-.022ZM55.37 9.99l-1.184.147-7.92 1.004 7.091 1.892 9.573-1.636-6.11-1.146-1.45-.261Zm18.278 0-1.44.272-6.278 1.01 8.82 1.663 7.248-1.887-7.194-.933-1.156-.125Zm-9.186 1.93-1.505.311-8.105 1.397 9.272 2.449 9.147-2.45-7.309-1.396-1.5-.31Z"/></svg>
